X:289
T:March in the Battle of Prague. RH.289
R:march
S:Rev.R.Harrison’s MS,c1815,Cumbria
O:England
A:Temple Sowerby,Cumbria
Z:vmp.Simon Wilson. Review PJH, 2008.
M:C
L:1/8
Q:1/4=95
K:G
g2g>g g2a/g/f/e/|{e}d2d>d d2b>g|\
{f}e2c’>a {g}f2a>f|g2g>g g2ba|!
a2(fg) aa(ba)|{a}g2ef gg(ag)|\
{g}fe/f/ a/g/f/e/ d2^c2|d2d>d d2z2:|!
|:d2d>e f>ga>b|c’2a>c’ b2bc’|\
(d’b)gg c’>ab>g|a2d>d d2B>c|!
d2d>f g2b>g|{g}f2c’>a b2((3dgb)|\
(d’b).g.g (ba)(gf)|g2g>g g2z2:|

